docs/assets/icons/server-security.svg

<?xml version="1.0" encoding="UTF-8" standalone="no"?>
<svg
   id="mdi-server-security"
   viewBox="0 0 24 24"
   version="1.1"
   sodipodi:docname="server-security.svg"
   inkscape:version="1.4.3 (0d15f75042, 2025-12-25)"
   xmlns:inkscape="http://www.inkscape.org/namespaces/inkscape"
   xmlns:sodipodi="http://sodipodi.sourceforge.net/DTD/sodipodi-0.dtd"
   xmlns="http://www.w3.org/2000/svg"
   xmlns:svg="http://www.w3.org/2000/svg">
  <defs
     id="defs1">
    <filter
       style="color-interpolation-filters:sRGB;"
       inkscape:label="Drop Shadow"
       id="filter2"
       x="-0.024964542"
       y="-0.020425532"
       width="1.060331"
       height="1.0493617">
      <feFlood
         result="flood"
         in="SourceGraphic"
         flood-opacity="0.498039"
         flood-color="rgb(0,0,0)"
         id="feFlood1" />
      <feGaussianBlur
         result="blur"
         in="SourceGraphic"
         stdDeviation="0.200000"
         id="feGaussianBlur1" />
      <feOffset
         result="offset"
         in="blur"
         dx="0.200000"
         dy="0.200000"
         id="feOffset1" />
      <feComposite
         result="comp1"
         operator="in"
         in="flood"
         in2="offset"
         id="feComposite1" />
      <feComposite
         result="comp2"
         operator="over"
         in="SourceGraphic"
         in2="comp1"
         id="feComposite2" />
    </filter>
    <filter
       style="color-interpolation-filters:sRGB;"
       inkscape:label="Drop Shadow"
       id="filter4"
       x="-0.049929086"
       y="-0.040851064"
       width="1.120662"
       height="1.0987234">
      <feFlood
         result="flood"
         in="SourceGraphic"
         flood-opacity="0.498039"
         flood-color="rgb(0,0,0)"
         id="feFlood2" />
      <feGaussianBlur
         result="blur"
         in="SourceGraphic"
         stdDeviation="0.200000"
         id="feGaussianBlur2" />
      <feOffset
         result="offset"
         in="blur"
         dx="0.200000"
         dy="0.200000"
         id="feOffset2" />
      <feComposite
         result="comp1"
         operator="in"
         in="flood"
         in2="offset"
         id="feComposite3" />
      <feComposite
         result="comp2"
         operator="over"
         in="SourceGraphic"
         in2="comp1"
         id="feComposite4" />
    </filter>
    <filter
       style="color-interpolation-filters:sRGB;"
       inkscape:label="Drop Shadow"
       id="filter6"
       x="-0.049929085"
       y="-0.040851064"
       width="1.120662"
       height="1.0987234">
      <feFlood
         result="flood"
         in="SourceGraphic"
         flood-opacity="0.498039"
         flood-color="rgb(0,0,0)"
         id="feFlood3" />
      <feGaussianBlur
         result="blur"
         in="SourceGraphic"
         stdDeviation="0.400000"
         id="feGaussianBlur3" />
      <feOffset
         result="offset"
         in="blur"
         dx="0.400000"
         dy="0.400000"
         id="feOffset3" />
      <feComposite
         result="comp1"
         operator="in"
         in="flood"
         in2="offset"
         id="feComposite5" />
      <feComposite
         result="comp2"
         operator="over"
         in="SourceGraphic"
         in2="comp1"
         id="feComposite6" />
    </filter>
    <filter
       style="color-interpolation-filters:sRGB;"
       inkscape:label="Drop Shadow"
       id="filter8"
       x="-0.099858172"
       y="-0.081702129"
       width="1.2413239"
       height="1.1974468">
      <feFlood
         result="flood"
         in="SourceGraphic"
         flood-opacity="0.498039"
         flood-color="rgb(0,0,0)"
         id="feFlood6" />
      <feGaussianBlur
         result="blur"
         in="SourceGraphic"
         stdDeviation="0.400000"
         id="feGaussianBlur6" />
      <feOffset
         result="offset"
         in="blur"
         dx="0.400000"
         dy="0.400000"
         id="feOffset6" />
      <feComposite
         result="comp1"
         operator="in"
         in="flood"
         in2="offset"
         id="feComposite7" />
      <feComposite
         result="comp2"
         operator="over"
         in="SourceGraphic"
         in2="comp1"
         id="feComposite8" />
    </filter>
  </defs>
  <sodipodi:namedview
     id="namedview1"
     pagecolor="#505050"
     bordercolor="#ffffff"
     borderopacity="1"
     inkscape:showpageshadow="0"
     inkscape:pageopacity="0"
     inkscape:pagecheckerboard="1"
     inkscape:deskcolor="#505050"
     inkscape:zoom="35.001786"
     inkscape:cx="15.356359"
     inkscape:cy="14.999235"
     inkscape:window-width="2560"
     inkscape:window-height="1368"
     inkscape:window-x="0"
     inkscape:window-y="0"
     inkscape:window-maximized="1"
     inkscape:current-layer="g1" />
  <g
     id="g1"
     transform="matrix(0.95898522,0,0,0.95898522,0.30037994,0.30038024)">
    <path
       d="m 17.875008,12 4.80681,2.136365 v 3.20454 c 0,2.969555 -2.050905,5.736135 -4.80681,6.409095 -2.75592,-0.67296 -4.806825,-3.43954 -4.806825,-6.409095 v -3.20454 L 17.875008,12 m 0,2.07227 -2.67046,1.196365 V 18.11 c 0,1.645 1.14296,3.183175 2.67046,3.56773 z"
       id="path1"
       style="fill:#4cae4f;fill-opacity:1;stroke-width:1.06825"
       sodipodi:nodetypes="ccscsccccscc" />
    <path
       d="m 2.386365,0.25 h 17.090913 c 0.589938,4.14e-6 1.068175,0.47824452 1.068175,1.0681825 v 4.272727 c -10e-7,0.5899374 -0.478238,1.0681769 -1.068175,1.068181 H 2.386365 c -0.5899403,0 -1.0681817,-0.4782407 -1.0681825,-1.068181 V 1.3181825 C 1.3181825,0.7282416 1.7964241,0.25 2.386365,0.25 m 0,8.545454 h 17.090913 c 0.589937,4.1e-6 1.068174,0.4782436 1.068175,1.068181 v 0.71569 L 17.875008,9.393636 10.931818,12.47 v 2.73454 H 2.386365 c -0.589938,0 -1.0681784,-0.478237 -1.0681825,-1.068175 v -4.27273 c 8e-7,-0.5899403 0.4782422,-1.068181 1.0681825,-1.068181 m 0,8.545451 h 8.545453 c 0.06405,2.40342 1.06819,4.7 2.62773,6.409095 H 2.386365 c -0.589938,0 -1.0681784,-0.478237 -1.0681825,-1.068175 v -4.27273 c -4.1e-6,-0.589944 0.4782387,-1.06819 1.0681825,-1.06819 M 7.727273,4.522727 H 8.7954555 V 2.3863635 H 7.727273 V 4.522727 m 0,8.545448 h 1.0681825 v -2.13635 H 7.727273 v 2.13635 m 0,8.54546 H 8.7954555 V 19.47727 H 7.727273 v 2.136365 M 3.454546,2.3863635 V 4.522727 H 5.5909095 V 2.3863635 H 3.454546 m 0,8.5454615 v 2.13635 h 2.1363635 v -2.13635 H 3.454546 m 0,8.545445 v 2.136365 H 5.5909095 V 19.47727 H 3.454546"
       id="path2"
       style="fill:#0091eb;fill-opacity:1;stroke-width:1.06825"
       sodipodi:nodetypes="ccsccscscccsccccsccccccsccccccccccccccccccccccccccccccccc" />
  </g>
</svg>

<?xml version="1.0" encoding="UTF-8"?>
<svg version="1.1" viewBox="0 0 24 24" xmlns="http://www.w3.org/2000/svg"><g transform="matrix(.95899 0 0 .95899 .30038 .30038)"><path d="m17.875 12 4.8068 2.1364v3.2045c0 2.9696-2.0509 5.7361-4.8068 6.4091-2.7559-.67296-4.8068-3.4395-4.8068-6.4091v-3.2045l4.8068-2.1364m0 2.0723-2.6705 1.1964v2.8414c0 1.645 1.143 3.1832 2.6705 3.5677z" fill="#4cae4f" stroke-width="1.0682"/><path d="m2.3864.25h17.091c.58994 4.14e-6 1.0682.47824 1.0682 1.0682v4.2727c-1e-6.58994-.47824 1.0682-1.0682 1.0682h-17.091c-.58994 0-1.0682-.47824-1.0682-1.0682v-4.2727c0-.58994.47824-1.0682 1.0682-1.0682m0 8.5455h17.091c.58994 4.1e-6 1.0682.47824 1.0682 1.0682v.71569l-2.6704-1.1857-6.9432 3.0764v2.7345h-8.5455c-.58994 0-1.0682-.47824-1.0682-1.0682v-4.2727c8e-7-.58994.47824-1.0682 1.0682-1.0682m0 8.5455h8.5455c.06405 2.4034 1.0682 4.7 2.6277 6.4091h-11.173c-.58994 0-1.0682-.47824-1.0682-1.0682v-4.2727c-4.1e-6-.58994.47824-1.0682 1.0682-1.0682m5.3409-12.818h1.0682v-2.1364h-1.0682v2.1364m0 8.5454h1.0682v-2.1364h-1.0682v2.1364m0 8.5455h1.0682v-2.1364h-1.0682v2.1364m-4.2727-19.227v2.1364h2.1364v-2.1364h-2.1364m0 8.5455v2.1364h2.1364v-2.1364h-2.1364m0 8.5454v2.1364h2.1364v-2.1364h-2.1364" fill="#0091eb" stroke="#4cae4f" stroke-linecap="round" stroke-linejoin="round" stroke-width=".41711"/></g></svg>
